usr/share/icons/biglinux-icons-material/16/actions/minuet-scales.svg

<?xml version="1.0" encoding="UTF-8" standalone="no"?>
<!-- Created with Inkscape (http://www.inkscape.org/) -->
<svg id="svg3699" xmlns:rdf="http://www.w3.org/1999/02/22-rdf-syntax-ns#" xmlns="http://www.w3.org/2000/svg" height="16" viewBox="0 0 16 16" width="16" version="1.1" xmlns:cc="http://creativecommons.org/ns#" xmlns:dc="http://purl.org/dc/elements/1.1/">
 <defs id="defs4339">
  <style id="current-color-scheme" type="text/css">.ColorScheme-Text {
        color:#dedede;
      }</style>
 </defs>
 <metadata id="metadata3704">
  <rdf:RDF>
   <cc:Work rdf:about="">
    <dc:format>image/svg+xml</dc:format>
    <dc:type rdf:resource="http://purl.org/dc/dcmitype/StillImage"/>
    <dc:title/>
   </cc:Work>
  </rdf:RDF>
 </metadata>
 <g id="layer1" transform="translate(0 -1036.4)">
  <path id="rect4343" class="ColorScheme-Text" style="fill:currentColor" d="m11 2v2h-9v1h9v1.6523a1.9977 1.9977 0 0 0 -0.365 -0.1523l-0.008-0.002a1.9977 1.9977 0 0 0 -2.4883 1.334 1.9977 1.9977 0 0 0 -0.041 0.168h-1.0977v-2h-1v2h-4v1h4v1.654a1.9977 1.9977 0 0 0 -0.3652 -0.154l-0.0078-0.002a1.9977 1.9977 0 0 0 -2.4883 1.334 1.9977 1.9977 0 0 0 -0.041 0.168h-1.0977v1h1.1445a1.9977 1.9977 0 0 0 1.3262 1.322 1.9977 1.9977 0 0 0 2.4902 -1.322h0.0391 7v-1h-6.9961a1.9977 1.9977 0 0 0 -0.0039 -0.018v-2.982h1.1445a1.9977 1.9977 0 0 0 1.3282 1.322 1.9977 1.9977 0 0 0 2.4883 -1.322h0.039 2v-1h-1.996a1.9977 1.9977 0 0 0 -0.004 -0.0176v-2.9824h2v-1h-2v-2h-1zm-0.943 5.457a0.97972 0.97972 0 0 1 0.255 0.0352l0.026 0.0078a0.97972 0.97972 0 0 1 0.652 1.2168 0.97972 0.97972 0 0 1 -1.2127 0.6602 0.97972 0.97972 0 0 1 -0.6679 -1.209 0.97972 0.97972 0 0 1 0.9476 -0.711zm-5.0004 4a0.97972 0.97972 0 0 1 0.2559 0.035l0.0254 0.008a0.97972 0.97972 0 0 1 0.6523 1.217 0.97972 0.97972 0 0 1 -1.2129 0.66 0.97972 0.97972 0 0 1 -0.6679 -1.209 0.97972 0.97972 0 0 1 0.9472 -0.711z" transform="translate(0,1036.4)"/>
 </g>
</svg>

<svg xmlns="http://www.w3.org/2000/svg" width="16" height="16"><path d="M11 2v2H2v1h9v1.652a1.998 1.998 0 0 0-.365-.152l-.008-.002a1.998 1.998 0 0 0-2.488 1.334A1.998 1.998 0 0 0 8.098 8H7V6H6v2H2v1h4v1.654a1.998 1.998 0 0 0-.365-.154l-.008-.002a1.998 1.998 0 0 0-2.488 1.334 1.998 1.998 0 0 0-.041.168H2v1h1.145a1.998 1.998 0 0 0 1.326 1.322A1.998 1.998 0 0 0 6.96 13H14v-1H7.004A1.998 1.998 0 0 0 7 11.982V9h1.145a1.998 1.998 0 0 0 1.328 1.322A1.998 1.998 0 0 0 11.96 9H14V8h-1.996A1.998 1.998 0 0 0 12 7.982V5h2V4h-2V2h-1zm-.943 5.457a.98.98 0 0 1 .255.035l.026.008a.98.98 0 0 1 .652 1.217.98.98 0 0 1-1.213.66.98.98 0 0 1-.668-1.209.98.98 0 0 1 .948-.711zm-5 4a.98.98 0 0 1 .256.035l.025.008a.98.98 0 0 1 .652 1.217.98.98 0 0 1-1.213.66.98.98 0 0 1-.668-1.209.98.98 0 0 1 .948-.711z" style="fill:currentColor;color:#dedede"/></svg>
